X:5870
T:Scottish d'échiré (Philippe Souché)
O:england
S:Trad 2, 8
M:2/4
L:1/16
K:G
dc|B2dc B2d2|edcB A2Bc|B2d2 G2B2|A2E2 F4|\
G2GA B2Bd|cdcB A2Bc|
B2d2 G2B2|A2F2 G2:|\
|:dd|d2d2 e3d|cBAc B2Gd|d2d2 edcB|AGEF G2:|


